X: 28788
T: My Love Is Like A Red Red Rose
R: waltz
M: 3/4
K: Dmajor
[M:4/4]A2F2||D3D E3F|d3c B3A|B3A B2d2|e6f2|
D3D E3F|d3c B2A2|B3A B2c2|d6A2|
d2f2 e2d2|B2(dB) A3F|A3A g3f|(fe3)- e2(ag)|
d2f2 e2d2|B2(dB) A3F|A3A B2c2|d6 (FE)|
D3D E3F|d3c B3A|B3A B2d2|e6f2|
D3D E3F|d3c B3A|B3A B2c2|d4||

